packages/ui/src/components/Icon/Icon.assets/forward.svg

<svg width="28" height="31" viewBox="0 0 28 31" fill="none" xmlns="http://www.w3.org/2000/svg">
    <path
        d="M13.9998 3.75098C14.3505 3.75098 14.6348 4.03524 14.6348 4.3859C14.6348 4.73655 14.3505 5.02082 13.9998 5.02082C7.33735 5.02082 1.93635 10.4218 1.93635 17.0843C1.93635 23.7468 7.33735 29.1478 13.9998 29.1478C20.6623 29.1478 26.0633 23.7468 26.0633 17.0843C26.0633 15.1108 25.5894 13.2068 24.6946 11.4975C24.532 11.1869 24.652 10.8032 24.9626 10.6406C25.2733 10.4779 25.657 10.5979 25.8196 10.9086C26.809 12.7985 27.3332 14.9044 27.3332 17.0843C27.3332 24.4481 21.3636 30.4176 13.9998 30.4176C6.63604 30.4176 0.666504 24.4481 0.666504 17.0843C0.666504 9.72051 6.63604 3.75098 13.9998 3.75098Z"
        fill="white" />
    <path
        d="M17.6202 4.05101C17.9429 4.31765 17.9429 4.81222 17.6202 5.07885L14.5311 7.63142C14.0964 7.99063 13.4398 7.68143 13.4398 7.1175V2.01237C13.4398 1.44844 14.0964 1.13923 14.5311 1.49845L17.6202 4.05101Z"
        fill="white" />
</svg>

<svg width="28" height="31" fill="none" xmlns="http://www.w3.org/2000/svg"><path d="M14 3.751a.635.635 0 110 1.27c-6.663 0-12.064 5.4-12.064 12.063S7.337 29.148 14 29.148c6.662 0 12.063-5.401 12.063-12.064 0-1.973-.474-3.877-1.368-5.586a.635.635 0 011.125-.59 13.277 13.277 0 011.513 6.176c0 7.364-5.97 13.334-13.333 13.334-7.364 0-13.333-5.97-13.333-13.334C.667 9.721 6.636 3.751 14 3.751z" fill="#fff"/><path d="M17.62 4.051a.667.667 0 010 1.028L14.531 7.63a.667.667 0 01-1.091-.514V2.012a.667.667 0 011.091-.514l3.09 2.553z" fill="#fff"/></svg>
